X:1
T:Happy Birthday
C:Unknown
M:3/4
L:1/4
Q:120
K:F
C/2>C/2 | [DF,A,] [CF,A,] [FF,A,] | [E2B,2C,2] [C3/4B,3/4C,3/4] [C/4B,/4C,/4] |
[DB,C,] [CB,C,] [GB,C,] | [F2F,2A,2] [C3/4F,3/4A,3/4] [C/4F,/4A,/4] |
[cF,A,] [AF,A,] [FF,A,] | [EB,,F,] [D2B,,2F,2] [B3/4B,,3/4F,3/4] [B/4B,,/4F,/4] |
[AF,A,] [FF,A,] [GC,B,] | [F3F,3A,3]
 